X:1
T:Paquito
T:Paquito
T:Vals
T:Francisco Tárrega (1852 - 1909)
C:Francisco Tárrega
%%score ( 1 2 3 4 )
L:1/8
Q:1/4=140
M:3/4
K:C
V:1 treble-8 nm="Classical Guitar" snm="Guit."
V:2 treble-8 
V:3 treble-8 
V:4 treble-8 
V:1
"^Allegretto" e6 | e6 | f6 |!-(!{/g} !-)!b2 c'2 d'2 | f6 | ^f6 | g6 |!-(!{/g} !-)!c'2 d'2 e'2 | %8
 g6 | ^g6 | b4 a2 | z2 [fb]2 [fc']2 |"^V" b4 a2 | z2 [fa]2 [fb]2 |"^V" a4 g2 | c2 !-(!G2 !-)!E2 | %16
 e6 | e6 | f6 |!-(!{/g} !-)!b2 c'2 d'2 | f6 | ^f6 | g6 |!-(!{/g} !-)!c'2 d'2 e'2 | g6 | ^g6 | %26
 !-(!a3 !-)!f'"^X" f'2 | z2 [dfb]2 [dfa]2 | [Bfa]3 [Bfg] [Bfg]2 | [B,FA]3 [B,FG] [B,FG]2 | %30
 [EGc]3 [EGc] [EGc]2 || z2!-(!{/g} !-)!e'2 e'2 |{/e'f'} !-(!e'2 !-)!g2 c2- | c2 ^c4 | e4 d2 | %35
 z2!-(!{/a} !-)!f'2 f'2 |{/f'g'} !-(!f'2 !-)![fa]2 [fa]2 | z2{/c'} [fb]4 |"^III" a4 g2 | %39
 z2!-(!{/g} !-)!e'2 e'2 |{/e'f'} !-(!e'2 !-)!g2 c2- | c2 ^c4 | e4 d2 | z2!-(!{/a} !-)!f'2 f'2 | %44
{/f'g'} !-(!f'2 !-)![fa]2{/c'} [fa]2- | [fa]2 [fd']4 |"^VIII" [egc']6- | [egc']2 z2 z2 |:[K:G] c6 | %49
 d6 |"^III" e4 d2 |"^VII" g>f a2 g2 | ^d>e f2 e2 | c'>d' e'2 d'2 | c'>b ^a2 !-(!b2 | %55
 (!-)!d'b) ge dB | c6 | d6 |"^III" e4 d2 |"^VII" g>f a2 g2 | ^d>e f2 e2 | c'>d' e'2 !-(!d'2 | %62
 !-)![GBg]3 [GBg] [GBg]2 | G2 z2 z2 :| B2{/d} c2 B2 | (BA) [Acf]2 [Acf]2 | (^GA) [Acf]2 [Acf]2 | %67
"^III" (^AB) [Bdg]2 [Bdg]2 |!-(!{/d} !-)!gf (ag) (dB) | z A eA"_XII" e'2 | z c fc"_VII" a2 | %71
 z B dB"_XII" b2 | B2{/d} c2 B2 | (B>A) [A^d]2 [Ad]2 |"^II" (cB) [B^df]2 [Bdf]2 | %75
 (AG) [GBe]2 [GBe]2 |"^IV" (GF) (AG) (FE) | B(a g)(c' b)(e' | d'2) z2 [Acf]2 | [GBg]2 z G- G2 || %80
[K:C] e6 | e6 | f6 |!-(!{/g} !-)!b2 c'2 d'2 | f6 | ^f6 | g6 |!-(!{/g} !-)!c'2 d'2 e'2 | g6 | ^g6 | %90
 !-(!a3 !-)!f'"^X" f'2 | z2 [dfb]2 [dfa]2 | [Bfa]3 [Bfg] [Bfg]2 | [B,FA]3 [B,FG] [B,FG]2 | %94
 [EGc]3 [EGc] [EGc]2 |] %95
V:2
 z2 [Gc]2 [Gc]2 | z2 [G^A]2 [GA]2 | z2 [GB]2 [GB]2 | x6 | z2 [GB]2 [GB]2 | z2 [Ac]2 [Ac]2 | %6
 z2 [Gc]2 [Gc]2 | x6 | z2 [Gc]2 [Gc]2 | z2 [^Gc]2 [Gc]2 | z2 c4 | x6 | z2 [^ce]2 [df]2 | x6 | %14
 z2 [c^d]2 [ce]2 | x6 | z2 [Gc]2 [Gc]2 | z2 [G^A]2 [GA]2 | z2 [GB]2 [GB]2 | x6 | z2 [GB]2 [GB]2 | %21
 z2 [Ac]2 [Ac]2 | z2 [Gc]2 [Gc]2 | x6 | z2 [Gc]2 [Gc]2 | z2 [^Gc]2 [Gc]2 | [FA]2 z2 [fa]2 | D6 | %28
 x6 | G,6 | C6 || C2 z4 | z2 z2 [EG]2- | [EG]2 z2 [EG]2 | z2 [FA]2 [FA]2 | D6 | G6 | G4 G2 | %38
 z2 [ce]2 [ce]2 | C2 z4 | z2 z2 [EG]2- | [EG]2 z2 [EG]2 | z2 [FA]2 [FA]2 | D6 | G6 | G2 z2 G2 | %46
 z2 c2 G2 | C2 z2 z2 |:[K:G] A,6 | D6 | G,6 | B,6 | C6 | D6 | [Gd]6 | x6 | A,6 | D6 | G,6 | B,6 | %60
 C6 | D6 | x6 | G,2 z2 z2 :| x6 | D6 | D6 | G,6 | x6 |{/A,} C4 z2 | D4 z2 | G,4 z2 | x6 | F6 | %74
 B,6 | E,6 | ^C4 z2 | [DG]2 z4 | z4 D2 | G,2 z2 G,2 ||[K:C] z2 [Gc]2 [Gc]2 | z2 [G^A]2 [GA]2 | %82
 z2 [GB]2 [GB]2 | x6 | z2 [GB]2 [GB]2 | z2 [Ac]2 [Ac]2 | z2 [Gc]2 [Gc]2 | x6 | z2 [Gc]2 [Gc]2 | %89
 z2 [^Gc]2 [Gc]2 | [FA]2 z2 [fa]2 | D6 | x6 | G,6 | C6 |] %95
V:3
 C6 | ^C6 | D6 | G6 | D6 | ^D6 | E6 | G6 | E,6 | E6 | F6 | D6 | G6 | G6 | C6 | x6 | C6 | ^C6 | D6 | %19
 G6 | D6 | ^D6 | E6 | G6 | E,6 | E6 | x6 | x6 | x6 | x6 | x6 || x6 | E,6 | E,6 | F,6 | x6 | x6 | %37
 x6 | C6 | x6 | E,6 | E,6 | F,6 | x6 | x6 | x6 | x6 | x6 |:[K:G] x6 | x6 | c>B ^A2 B2 | d6 | c6 | %53
 f6 | x6 | x6 | x6 | x6 | c>B ^A2 B2 | d6 | c6 | f6 | x6 | x6 :| x6 | x6 | x6 | x6 | x6 | x6 | x6 | %71
 x6 | x6 | x6 | x6 | x6 | x6 | x6 | x6 | x6 ||[K:C] C6 | ^C6 | D6 | G6 | D6 | ^D6 | E6 | G6 | E,6 | %89
 E6 | x6 | x6 | x6 | x6 | x6 |] %95
V:4
 x6 | x6 | x6 | x6 | x6 | x6 | x6 | x6 | x6 | x6 | x6 | x6 | x6 | x6 | x6 | x6 | x6 | x6 | x6 | %19
 x6 | x6 | x6 | x6 | x6 | x6 | x6 | x6 | x6 | x6 | x6 | x6 || x6 | x6 | x6 | x6 | x6 | x6 | x6 | %38
 x6 | x6 | x6 | x6 | x6 | x6 | x6 | x6 | x6 | x6 |:[K:G] D>D E2 ^E2 | F>G ^G2 A2 | x6 | x6 | x6 | %53
 x6 | x6 | x6 | D>D E2 ^E2 | F>G ^G2 A2 | x6 | x6 | x6 | x6 | x6 | x6 :| x6 | x6 | x6 | x6 | x6 | %69
 x6 | x6 | x6 | x6 | x6 | x6 | x6 | x6 | x6 | x6 | x6 ||[K:C] x6 | x6 | x6 | x6 | x6 | x6 | x6 | %87
 x6 | x6 | x6 | x6 | x6 | x6 | x6 | x6 |] %95

